CiE_spectralData/9.1_matching.sp
SPECT  

DESCRIPTOR "Argyll Spectral power/reflectance information"
ORIGINATOR "Argyll CMS"
CREATED "Tue Sep 22 20:53:07 2020"
MEAS_TYPE "TRANSMISSIVE"
SPECTRAL_BANDS "36"
SPECTRAL_BANDS "36"
SPECTRAL_START_NM "380.000000"
SPECTRAL_END_NM "730.000000"
SPECTRAL_NORM "100.000000"

NUMBER_OF_FIELDS 36
BEGIN_DATA_FORMAT
SPEC_380 SPEC_390 SPEC_400 SPEC_410 SPEC_420 SPEC_430 SPEC_440 SPEC_450 SPEC_460 SPEC_470 SPEC_480 SPEC_490 SPEC_500 SPEC_510 SPEC_520 SPEC_530 SPEC_540 SPEC_550 SPEC_560 SPEC_570 SPEC_580 SPEC_590 SPEC_600 SPEC_610 SPEC_620 SPEC_630 SPEC_640 SPEC_650 SPEC_660 SPEC_670 SPEC_680 SPEC_690 SPEC_700 SPEC_710 SPEC_720 SPEC_730 
END_DATA_FORMAT

NUMBER_OF_SETS 1
BEGIN_DATA
3.927110 2.641749 1.226248 15.15052 21.41111 21.26758 21.07723 21.06076 20.95936 21.10193 23.42774 29.58665 34.94220 38.07685 40.42648 41.94695 42.77370 43.19618 43.22418 43.44114 47.14525 57.37747 63.28481 64.65246 64.54062 64.37829 65.31591 64.63945 64.30195 62.55346 62.90901 62.95302 63.03386 62.67475 60.16883 58.87004 
END_DATA
