CiE_spectralData/9.1_real.sp
SPECT  

DESCRIPTOR "Argyll Spectral power/reflectance information"
ORIGINATOR "Argyll CMS"
CREATED "Tue Sep 22 20:30:38 2020"
MEAS_TYPE "REFLECTIVE"
SPECTRAL_BANDS "36"
SPECTRAL_BANDS "36"
SPECTRAL_START_NM "380.000000"
SPECTRAL_END_NM "730.000000"
SPECTRAL_NORM "100.000000"

NUMBER_OF_FIELDS 36
BEGIN_DATA_FORMAT
SPEC_380 SPEC_390 SPEC_400 SPEC_410 SPEC_420 SPEC_430 SPEC_440 SPEC_450 SPEC_460 SPEC_470 SPEC_480 SPEC_490 SPEC_500 SPEC_510 SPEC_520 SPEC_530 SPEC_540 SPEC_550 SPEC_560 SPEC_570 SPEC_580 SPEC_590 SPEC_600 SPEC_610 SPEC_620 SPEC_630 SPEC_640 SPEC_650 SPEC_660 SPEC_670 SPEC_680 SPEC_690 SPEC_700 SPEC_710 SPEC_720 SPEC_730 
END_DATA_FORMAT

NUMBER_OF_SETS 1
BEGIN_DATA
26.62412 26.57330 26.51687 26.45448 26.38698 28.97453 31.63847 33.57772 34.45926 34.78672 35.21325 36.29119 38.29471 40.99074 44.12252 47.37094 50.89552 54.21104 56.32652 58.69064 62.13507 65.10189 65.76625 65.16417 64.53958 64.01583 63.72947 63.59196 63.88348 64.33350 65.10586 65.96154 66.95772 67.31890 67.37878 67.80490 
END_DATA
