CiE_spectralData/9.1_imaged.sp
SPECT  

DESCRIPTOR "Argyll Spectral power/reflectance information"
ORIGINATOR "Argyll CMS"
CREATED "Tue Sep 22 20:34:44 2020"
MEAS_TYPE "TRANSMISSIVE"
SPECTRAL_BANDS "36"
SPECTRAL_BANDS "36"
SPECTRAL_START_NM "380.000000"
SPECTRAL_END_NM "730.000000"
SPECTRAL_NORM "100.000000"

NUMBER_OF_FIELDS 36
BEGIN_DATA_FORMAT
SPEC_380 SPEC_390 SPEC_400 SPEC_410 SPEC_420 SPEC_430 SPEC_440 SPEC_450 SPEC_460 SPEC_470 SPEC_480 SPEC_490 SPEC_500 SPEC_510 SPEC_520 SPEC_530 SPEC_540 SPEC_550 SPEC_560 SPEC_570 SPEC_580 SPEC_590 SPEC_600 SPEC_610 SPEC_620 SPEC_630 SPEC_640 SPEC_650 SPEC_660 SPEC_670 SPEC_680 SPEC_690 SPEC_700 SPEC_710 SPEC_720 SPEC_730 
END_DATA_FORMAT

NUMBER_OF_SETS 1
BEGIN_DATA
17.89586 16.77027 15.53091 25.64115 18.92587 17.96934 17.74399 17.57785 17.67511 17.82973 20.12345 26.00343 31.23757 34.11783 36.39720 38.13737 38.85741 39.04816 39.28551 39.46766 42.16705 50.50484 54.86326 55.60952 55.96829 56.30393 56.48321 56.22125 55.56302 54.86147 54.70558 55.42308 55.21287 53.42569 52.18185 51.09851 
END_DATA
