CiE_spectralData/9.2_imaged.sp
SPECT  

DESCRIPTOR "Argyll Spectral power/reflectance information"
ORIGINATOR "Argyll CMS"
CREATED "Tue Sep 22 20:35:23 2020"
MEAS_TYPE "TRANSMISSIVE"
SPECTRAL_BANDS "36"
SPECTRAL_BANDS "36"
SPECTRAL_START_NM "380.000000"
SPECTRAL_END_NM "730.000000"
SPECTRAL_NORM "100.000000"

NUMBER_OF_FIELDS 36
BEGIN_DATA_FORMAT
SPEC_380 SPEC_390 SPEC_400 SPEC_410 SPEC_420 SPEC_430 SPEC_440 SPEC_450 SPEC_460 SPEC_470 SPEC_480 SPEC_490 SPEC_500 SPEC_510 SPEC_520 SPEC_530 SPEC_540 SPEC_550 SPEC_560 SPEC_570 SPEC_580 SPEC_590 SPEC_600 SPEC_610 SPEC_620 SPEC_630 SPEC_640 SPEC_650 SPEC_660 SPEC_670 SPEC_680 SPEC_690 SPEC_700 SPEC_710 SPEC_720 SPEC_730 
END_DATA_FORMAT

NUMBER_OF_SETS 1
BEGIN_DATA
-4.429929 -5.211682 -6.072084 7.377370 10.45169 9.467147 9.414591 9.381055 9.392753 9.543811 11.39911 16.15248 20.28761 22.77213 24.44807 25.71022 26.32882 26.40096 26.70468 26.72531 30.74170 42.01138 48.20335 49.84624 50.34616 49.72046 49.88358 50.60154 49.51457 48.41309 48.40489 49.28134 48.77278 47.48480 47.37820 45.28452 
END_DATA
