CiE_spectralData/9.2_real.sp
SPECT  

DESCRIPTOR "Argyll Spectral power/reflectance information"
ORIGINATOR "Argyll CMS"
CREATED "Tue Sep 22 20:30:54 2020"
MEAS_TYPE "REFLECTIVE"
SPECTRAL_BANDS "36"
SPECTRAL_BANDS "36"
SPECTRAL_START_NM "380.000000"
SPECTRAL_END_NM "730.000000"
SPECTRAL_NORM "100.000000"

NUMBER_OF_FIELDS 36
BEGIN_DATA_FORMAT
SPEC_380 SPEC_390 SPEC_400 SPEC_410 SPEC_420 SPEC_430 SPEC_440 SPEC_450 SPEC_460 SPEC_470 SPEC_480 SPEC_490 SPEC_500 SPEC_510 SPEC_520 SPEC_530 SPEC_540 SPEC_550 SPEC_560 SPEC_570 SPEC_580 SPEC_590 SPEC_600 SPEC_610 SPEC_620 SPEC_630 SPEC_640 SPEC_650 SPEC_660 SPEC_670 SPEC_680 SPEC_690 SPEC_700 SPEC_710 SPEC_720 SPEC_730 
END_DATA_FORMAT

NUMBER_OF_SETS 1
BEGIN_DATA
23.29633 23.26824 23.23705 23.20257 23.16372 22.91667 22.37218 21.99236 21.75789 21.56429 21.75064 22.61144 24.81547 28.34719 33.19248 37.75137 40.33435 42.14535 44.72899 48.89521 53.33943 57.05383 59.35768 60.44584 60.90598 61.00522 61.15518 61.20809 61.30287 61.16244 61.27380 61.50790 61.88126 61.89960 61.92416 61.97556 
END_DATA
